build/system/BarCodeSolid.svg

<svg xmlns="http://www.w3.org/2000/svg" fill="none" viewBox="0 0 24 24" focusable="false"><path d="M0 0H24V24H0z"/><path fill="#74767B" fill-rule="evenodd" d="M5.05029 1.99988L19.0503 1.99988C20.7071 1.99988 22.0503 3.34302 22.0503 4.99988L22.0503 18.9999C22.0503 20.6567 20.7071 21.9999 19.0503 21.9999L5.05029 21.9999C3.39344 21.9999 2.05029 20.6567 2.05029 18.9999L2.05029 4.99988C2.05029 3.34302 3.39344 1.99988 5.05029 1.99988ZM5.74644 7.94748C5.38745 7.94748 5.09644 8.23849 5.09644 8.59748L5.09644 15.4024C5.09644 15.7613 5.38745 16.0523 5.74644 16.0523L7.02103 16.0523C7.38002 16.0523 7.67103 15.7613 7.67103 15.4024L7.67103 8.59748C7.67103 8.23849 7.38002 7.94748 7.02103 7.94748L5.74644 7.94748ZM18.398 7.9475C18.757 7.9475 19.048 8.23852 19.048 8.5975L19.048 15.4024C19.048 15.7614 18.757 16.0524 18.398 16.0524C18.0391 16.0524 17.748 15.7614 17.748 15.4024L17.748 8.5975C17.748 8.23852 18.0391 7.9475 18.398 7.9475ZM13.8651 8.59748C13.8651 8.23849 14.1562 7.94748 14.5151 7.94748L15.7897 7.94748C16.1487 7.94748 16.4397 8.23849 16.4397 8.59748L16.4397 15.4024C16.4397 15.7613 16.1487 16.0523 15.7897 16.0523L14.5151 16.0523C14.1562 16.0523 13.8651 15.7613 13.8651 15.4024L13.8651 8.59748ZM11.2539 7.94753C11.6129 7.94753 11.9039 8.23855 11.9039 8.59753L11.9039 15.4024C11.9039 15.7614 11.6129 16.0524 11.2539 16.0524C10.895 16.0524 10.6039 15.7614 10.6039 15.4024L10.6039 8.59753C10.6039 8.23855 10.895 7.94753 11.2539 7.94753Z"/></svg>

<svg xmlns="http://www.w3.org/2000/svg" fill="none" viewBox="0 0 24 24" focusable="false"><path fill="#74767B" fill-rule="evenodd" d="M5.05 1.99h14c1.65 0 3 1.35 3 3v14c0 1.66-1.35 3-3 3h-14c-1.66 0-3-1.34-3-3v-14c0-1.65 1.34-3 3-3m.69 5.95c-.36 0-.65.29-.65.65v6.81c0 .36.29.65.65.65h1.28c.35 0 .65-.29.65-.65V8.59c0-.36-.3-.65-.65-.65zm12.65 0c.36 0 .65.29.65.65v6.81c0 .36-.29.65-.65.65s-.65-.29-.65-.65V8.59c0-.36.29-.65.65-.65m-4.53.65c0-.36.29-.65.65-.65h1.27c.36 0 .65.29.65.65v6.81c0 .36-.29.65-.65.65h-1.27c-.36 0-.65-.29-.65-.65zm-2.61-.65c.36 0 .65.29.65.65v6.81c0 .36-.29.65-.65.65s-.65-.29-.65-.65V8.59c0-.36.29-.65.65-.65"/></svg>
